X: 26396
T: Merry Girls Of Bristol, The
R: polka
M: 2/4
K: Gmajor
G>B dG|ef g>e|dB B/A/G|A2 FE/D/|
GG/B/ dG|ee/f/ g>e|dB c/B/A/F/|G3:|
d>f af|bg f>e|ff/g/ af|e^c BA|
dd/f/ af|gg/a/ b>g|fa A>^c|d2 c/B/A/F/|
G>B dG|e/f/g/a/ gf/e/|db ca|B/c/d/g/ Af/d/|
GG/B/ dc/B/|e/f/g/a/ gf/e/|dB c/B/A|G3||

